X: 20883
M: 2/4
L: 1/16
K: F
V: 1 name="3"
c2 |\
f2 (3(fgf) e2g2 | f2 (3(fgf) c2 (3(cdc) | dcBA GABc | ABcA Fcde |\
f2 (3(fgf) e2g2 | f2 (3(fgf) d2B2 | c2(ed) (dc).B.G | F2F2F2 |]
|: A2 |\
d2^cd A2{e}f2 | d2^cd {e}A2(a2 | g2)(g2 f2)(f2 | e)fge ^cdef |\
d2^cd A2{e}f2 | d2^cd A2{e}a2 | b2ba gagf | ed^ce "^D.C."d2 :|


